X: 11438
T: Easy Club, The
R: reel
M: 4/4
K: Amajor
|:AEAc BEGB|ccAc eAce|faa<g aaea|caec dcBc|
AEAc BEGB|ccAc eAce|faga efec|1 dBGB A3 B:|2 dBGB A2 ce||
|:faa<d aaga|eaa<c aaga|faa<d aaga|ceec dBGB|
AEcA Bc (3ddd|cAec defg|agae faec|dBGB A4:|

